images/50633701.svg

<?xml version="1.0" encoding="UTF-8"?>
<svg xmlns="http://www.w3.org/2000/svg" xmlns:xlink="http://www.w3.org/1999/xlink" width="300pt" height="300pt" viewBox="0 0 300 300" version="1.1">
<defs>
<g>
<symbol overflow="visible" id="glyph0-0">
<path style="stroke:none;" d="M 0.453125 1.59375 L 0.453125 -6.34375 L 4.953125 -6.34375 L 4.953125 1.59375 Z M 0.953125 1.09375 L 4.453125 1.09375 L 4.453125 -5.84375 L 0.953125 -5.84375 Z M 0.953125 1.09375 "/>
</symbol>
<symbol overflow="visible" id="glyph0-1">
<path style="stroke:none;" d="M 0.890625 -6.5625 L 4.65625 -6.5625 L 4.65625 -5.8125 L 1.765625 -5.8125 L 1.765625 -3.875 L 4.375 -3.875 L 4.375 -3.140625 L 1.765625 -3.140625 L 1.765625 0 L 0.890625 0 Z M 0.890625 -6.5625 "/>
</symbol>
<symbol overflow="visible" id="glyph0-2">
<path style="stroke:none;" d="M 3.546875 -5.953125 C 2.898438 -5.953125 2.382812 -5.710938 2 -5.234375 C 1.625 -4.753906 1.4375 -4.101562 1.4375 -3.28125 C 1.4375 -2.445312 1.625 -1.789062 2 -1.3125 C 2.382812 -0.832031 2.898438 -0.59375 3.546875 -0.59375 C 4.191406 -0.59375 4.703125 -0.832031 5.078125 -1.3125 C 5.453125 -1.789062 5.640625 -2.445312 5.640625 -3.28125 C 5.640625 -4.101562 5.453125 -4.753906 5.078125 -5.234375 C 4.703125 -5.710938 4.191406 -5.953125 3.546875 -5.953125 Z M 3.546875 -6.6875 C 4.460938 -6.6875 5.195312 -6.375 5.75 -5.75 C 6.300781 -5.132812 6.578125 -4.3125 6.578125 -3.28125 C 6.578125 -2.238281 6.300781 -1.410156 5.75 -0.796875 C 5.195312 -0.179688 4.460938 0.125 3.546875 0.125 C 2.617188 0.125 1.878906 -0.179688 1.328125 -0.796875 C 0.773438 -1.410156 0.5 -2.238281 0.5 -3.28125 C 0.5 -4.3125 0.773438 -5.132812 1.328125 -5.75 C 1.878906 -6.375 2.617188 -6.6875 3.546875 -6.6875 Z M 3.546875 -6.6875 "/>
</symbol>
<symbol overflow="visible" id="glyph0-3">
<path style="stroke:none;" d="M 0.890625 -6.5625 L 2.078125 -6.5625 L 4.984375 -1.078125 L 4.984375 -6.5625 L 5.84375 -6.5625 L 5.84375 0 L 4.65625 0 L 1.75 -5.484375 L 1.75 0 L 0.890625 0 Z M 0.890625 -6.5625 "/>
</symbol>
<symbol overflow="visible" id="glyph0-4">
<path style="stroke:none;" d="M 0.890625 -6.5625 L 1.765625 -6.5625 L 1.765625 -3.875 L 5 -3.875 L 5 -6.5625 L 5.890625 -6.5625 L 5.890625 0 L 5 0 L 5 -3.125 L 1.765625 -3.125 L 1.765625 0 L 0.890625 0 Z M 0.890625 -6.5625 "/>
</symbol>
</g>
</defs>
<g id="surface24885">
<rect x="0" y="0" width="300" height="300" style="fill:rgb(100%,100%,100%);fill-opacity:1;stroke:none;"/>
<path style="fill:none;stroke-width:1.2;stroke-linecap:butt;stroke-linejoin:miter;stroke:rgb(20%,80%,80%);stroke-opacity:1;stroke-miterlimit:10;" d="M 57.660156 174.777344 L 60.160156 163.976562 "/>
<path style="fill:none;stroke-width:1.2;stroke-linecap:butt;stroke-linejoin:miter;stroke:rgb(0%,0%,0%);stroke-opacity:1;stroke-miterlimit:10;" d="M 60.160156 163.976562 L 62.660156 153.175781 "/>
<path style=" stroke:none;fill-rule:nonzero;fill:rgb(100%,100%,100%);fill-opacity:1;" d="M 54.660156 169.277344 L 60.660156 169.277344 L 60.660156 180.277344 L 54.660156 180.277344 Z M 54.660156 169.277344 "/>
<g style="fill:rgb(20%,80%,80%);fill-opacity:1;">
  <use xlink:href="#glyph0-1" x="54.660156" y="177.94043"/>
</g>
<path style="fill:none;stroke-width:1.2;stroke-linecap:butt;stroke-linejoin:miter;stroke:rgb(0%,0%,0%);stroke-opacity:1;stroke-miterlimit:10;" d="M 62.660156 153.175781 L 46.453125 138.042969 "/>
<path style="fill:none;stroke-width:1.2;stroke-linecap:butt;stroke-linejoin:miter;stroke:rgb(0%,0%,0%);stroke-opacity:1;stroke-miterlimit:10;" d="M 64.601562 147.847656 L 51.636719 135.742188 "/>
<path style="fill:none;stroke-width:1.2;stroke-linecap:butt;stroke-linejoin:miter;stroke:rgb(0%,0%,0%);stroke-opacity:1;stroke-miterlimit:10;" d="M 83.871094 146.707031 L 62.660156 153.175781 "/>
<path style="fill:none;stroke-width:1.2;stroke-linecap:butt;stroke-linejoin:miter;stroke:rgb(0%,0%,0%);stroke-opacity:1;stroke-miterlimit:10;" d="M 46.453125 138.042969 L 51.457031 116.441406 "/>
<path style="fill:none;stroke-width:1.2;stroke-linecap:butt;stroke-linejoin:miter;stroke:rgb(0%,0%,0%);stroke-opacity:1;stroke-miterlimit:10;" d="M 51.457031 116.441406 L 43.351562 108.875 "/>
<path style="fill:none;stroke-width:1.2;stroke-linecap:butt;stroke-linejoin:miter;stroke:rgb(20%,80%,80%);stroke-opacity:1;stroke-miterlimit:10;" d="M 43.351562 108.875 L 35.25 101.308594 "/>
<path style="fill:none;stroke-width:1.2;stroke-linecap:butt;stroke-linejoin:miter;stroke:rgb(0%,0%,0%);stroke-opacity:1;stroke-miterlimit:10;" d="M 51.457031 116.441406 L 72.667969 109.972656 "/>
<path style="fill:none;stroke-width:1.2;stroke-linecap:butt;stroke-linejoin:miter;stroke:rgb(0%,0%,0%);stroke-opacity:1;stroke-miterlimit:10;" d="M 55.101562 120.785156 L 72.066406 115.609375 "/>
<path style=" stroke:none;fill-rule:nonzero;fill:rgb(100%,100%,100%);fill-opacity:1;" d="M 29.25 95.808594 L 35.25 95.808594 L 35.25 106.808594 L 29.25 106.808594 Z M 29.25 95.808594 "/>
<g style="fill:rgb(20%,80%,80%);fill-opacity:1;">
  <use xlink:href="#glyph0-1" x="29.25" y="104.47168"/>
</g>
<path style="fill:none;stroke-width:1.2;stroke-linecap:butt;stroke-linejoin:miter;stroke:rgb(0%,0%,0%);stroke-opacity:1;stroke-miterlimit:10;" d="M 72.667969 109.972656 L 88.875 125.105469 "/>
<path style="fill:none;stroke-width:1.2;stroke-linecap:butt;stroke-linejoin:miter;stroke:rgb(0%,0%,0%);stroke-opacity:1;stroke-miterlimit:10;" d="M 88.875 125.105469 L 83.871094 146.707031 "/>
<path style="fill:none;stroke-width:1.2;stroke-linecap:butt;stroke-linejoin:miter;stroke:rgb(0%,0%,0%);stroke-opacity:1;stroke-miterlimit:10;" d="M 83.289062 126.089844 L 79.289062 143.371094 "/>
<path style="fill:none;stroke-width:1.2;stroke-linecap:butt;stroke-linejoin:miter;stroke:rgb(0%,0%,0%);stroke-opacity:1;stroke-miterlimit:10;" d="M 83.871094 146.707031 L 91.972656 154.273438 "/>
<path style="fill:none;stroke-width:1.2;stroke-linecap:butt;stroke-linejoin:miter;stroke:rgb(100%,0%,0%);stroke-opacity:1;stroke-miterlimit:10;" d="M 91.972656 154.273438 L 100.078125 161.839844 "/>
<path style="fill:none;stroke-width:1.2;stroke-linecap:butt;stroke-linejoin:miter;stroke:rgb(100%,0%,0%);stroke-opacity:1;stroke-miterlimit:10;" d="M 100.078125 161.839844 L 110.683594 158.605469 "/>
<path style="fill:none;stroke-width:1.2;stroke-linecap:butt;stroke-linejoin:miter;stroke:rgb(0%,0%,0%);stroke-opacity:1;stroke-miterlimit:10;" d="M 110.683594 158.605469 L 121.289062 155.371094 "/>
<path style=" stroke:none;fill-rule:nonzero;fill:rgb(100%,100%,100%);fill-opacity:1;" d="M 96.078125 156.339844 L 104.078125 156.339844 L 104.078125 167.339844 L 96.078125 167.339844 Z M 96.078125 156.339844 "/>
<g style="fill:rgb(100%,0%,0%);fill-opacity:1;">
  <use xlink:href="#glyph0-2" x="96.078125" y="165.00293"/>
</g>
<path style="fill:none;stroke-width:1.2;stroke-linecap:butt;stroke-linejoin:miter;stroke:rgb(0%,0%,0%);stroke-opacity:1;stroke-miterlimit:10;" d="M 121.289062 155.371094 L 126.289062 133.769531 "/>
<path style="fill:none;stroke-width:1.2;stroke-linecap:butt;stroke-linejoin:miter;stroke:rgb(0%,0%,0%);stroke-opacity:1;stroke-miterlimit:10;" d="M 126.871094 154.386719 L 130.871094 137.105469 "/>
<path style="fill:none;stroke-width:1.2;stroke-linecap:butt;stroke-linejoin:miter;stroke:rgb(0%,0%,0%);stroke-opacity:1;stroke-miterlimit:10;" d="M 137.496094 170.503906 L 121.289062 155.371094 "/>
<path style="fill:none;stroke-width:1.2;stroke-linecap:butt;stroke-linejoin:miter;stroke:rgb(0%,0%,0%);stroke-opacity:1;stroke-miterlimit:10;" d="M 126.289062 133.769531 L 147.5 127.300781 "/>
<path style="fill:none;stroke-width:1.2;stroke-linecap:butt;stroke-linejoin:miter;stroke:rgb(0%,0%,0%);stroke-opacity:1;stroke-miterlimit:10;" d="M 147.5 127.300781 L 163.707031 142.433594 "/>
<path style="fill:none;stroke-width:1.2;stroke-linecap:butt;stroke-linejoin:miter;stroke:rgb(0%,0%,0%);stroke-opacity:1;stroke-miterlimit:10;" d="M 152.679688 125 L 165.644531 137.105469 "/>
<path style="fill:none;stroke-width:1.2;stroke-linecap:butt;stroke-linejoin:miter;stroke:rgb(0%,0%,0%);stroke-opacity:1;stroke-miterlimit:10;" d="M 152.5 105.699219 L 147.5 127.300781 "/>
<path style="fill:none;stroke-width:1.2;stroke-linecap:butt;stroke-linejoin:miter;stroke:rgb(0%,0%,0%);stroke-opacity:1;stroke-miterlimit:10;" d="M 163.707031 142.433594 L 174.308594 139.199219 "/>
<path style="fill:none;stroke-width:1.2;stroke-linecap:butt;stroke-linejoin:miter;stroke:rgb(0%,0%,100%);stroke-opacity:1;stroke-miterlimit:10;" d="M 174.308594 139.199219 L 184.914062 135.964844 "/>
<path style="fill:none;stroke-width:1.2;stroke-linecap:butt;stroke-linejoin:miter;stroke:rgb(0%,0%,0%);stroke-opacity:1;stroke-miterlimit:10;" d="M 163.707031 142.433594 L 161.203125 153.234375 "/>
<path style="fill:none;stroke-width:1.2;stroke-linecap:butt;stroke-linejoin:miter;stroke:rgb(0%,0%,100%);stroke-opacity:1;stroke-miterlimit:10;" d="M 161.203125 153.234375 L 158.703125 164.035156 "/>
<path style="fill:none;stroke-width:1.2;stroke-linecap:butt;stroke-linejoin:miter;stroke:rgb(0%,0%,100%);stroke-opacity:1;stroke-miterlimit:10;" d="M 184.914062 135.964844 L 187.417969 125.164062 "/>
<path style="fill:none;stroke-width:1.2;stroke-linecap:butt;stroke-linejoin:miter;stroke:rgb(0%,0%,0%);stroke-opacity:1;stroke-miterlimit:10;" d="M 187.417969 125.164062 L 189.917969 114.363281 "/>
<path style="fill:none;stroke-width:1.2;stroke-linecap:butt;stroke-linejoin:miter;stroke:rgb(0%,0%,100%);stroke-opacity:1;stroke-miterlimit:10;" d="M 180.332031 132.628906 L 182.332031 123.984375 "/>
<path style="fill:none;stroke-width:1.2;stroke-linecap:butt;stroke-linejoin:miter;stroke:rgb(0%,0%,0%);stroke-opacity:1;stroke-miterlimit:10;" d="M 182.332031 123.984375 L 184.335938 115.34375 "/>
<path style=" stroke:none;fill-rule:nonzero;fill:rgb(100%,100%,100%);fill-opacity:1;" d="M 181.914062 130.464844 L 188.914062 130.464844 L 188.914062 141.464844 L 181.914062 141.464844 Z M 181.914062 130.464844 "/>
<g style="fill:rgb(0%,0%,100%);fill-opacity:1;">
  <use xlink:href="#glyph0-3" x="181.914062" y="139.12793"/>
</g>
<path style="fill:none;stroke-width:1.2;stroke-linecap:butt;stroke-linejoin:miter;stroke:rgb(0%,0%,0%);stroke-opacity:1;stroke-miterlimit:10;" d="M 189.917969 114.363281 L 181.8125 106.796875 "/>
<path style="fill:none;stroke-width:1.2;stroke-linecap:butt;stroke-linejoin:miter;stroke:rgb(0%,0%,100%);stroke-opacity:1;stroke-miterlimit:10;" d="M 181.8125 106.796875 L 173.710938 99.230469 "/>
<path style="fill:none;stroke-width:1.2;stroke-linecap:butt;stroke-linejoin:miter;stroke:rgb(0%,0%,0%);stroke-opacity:1;stroke-miterlimit:10;" d="M 189.917969 114.363281 L 200.523438 111.128906 "/>
<path style="fill:none;stroke-width:1.2;stroke-linecap:butt;stroke-linejoin:miter;stroke:rgb(0%,0%,100%);stroke-opacity:1;stroke-miterlimit:10;" d="M 200.523438 111.128906 L 211.125 107.894531 "/>
<path style="fill:none;stroke-width:1.2;stroke-linecap:butt;stroke-linejoin:miter;stroke:rgb(0%,0%,100%);stroke-opacity:1;stroke-miterlimit:10;" d="M 173.710938 99.230469 L 163.105469 102.464844 "/>
<path style="fill:none;stroke-width:1.2;stroke-linecap:butt;stroke-linejoin:miter;stroke:rgb(0%,0%,0%);stroke-opacity:1;stroke-miterlimit:10;" d="M 163.105469 102.464844 L 152.5 105.699219 "/>
<path style="fill:none;stroke-width:1.2;stroke-linecap:butt;stroke-linejoin:miter;stroke:rgb(0%,0%,100%);stroke-opacity:1;stroke-miterlimit:10;" d="M 173.113281 104.867188 L 164.628906 107.453125 "/>
<path style="fill:none;stroke-width:1.2;stroke-linecap:butt;stroke-linejoin:miter;stroke:rgb(0%,0%,0%);stroke-opacity:1;stroke-miterlimit:10;" d="M 164.628906 107.453125 L 156.144531 110.042969 "/>
<path style=" stroke:none;fill-rule:nonzero;fill:rgb(100%,100%,100%);fill-opacity:1;" d="M 170.710938 93.730469 L 177.710938 93.730469 L 177.710938 104.730469 L 170.710938 104.730469 Z M 170.710938 93.730469 "/>
<g style="fill:rgb(0%,0%,100%);fill-opacity:1;">
  <use xlink:href="#glyph0-3" x="170.710938" y="102.393555"/>
</g>
<path style="fill:none;stroke-width:1.2;stroke-linecap:butt;stroke-linejoin:miter;stroke:rgb(0%,0%,100%);stroke-opacity:1;stroke-miterlimit:10;" d="M 211.125 107.894531 L 219.230469 115.460938 "/>
<path style="fill:none;stroke-width:1.2;stroke-linecap:butt;stroke-linejoin:miter;stroke:rgb(0%,0%,0%);stroke-opacity:1;stroke-miterlimit:10;" d="M 219.230469 115.460938 L 227.332031 123.027344 "/>
<path style=" stroke:none;fill-rule:nonzero;fill:rgb(100%,100%,100%);fill-opacity:1;" d="M 204.125 102.394531 L 218.125 102.394531 L 218.125 113.394531 L 204.125 113.394531 Z M 204.125 102.394531 "/>
<g style="fill:rgb(0%,0%,100%);fill-opacity:1;">
  <use xlink:href="#glyph0-3" x="204.125" y="111.057617"/>
  <use xlink:href="#glyph0-4" x="211.102539" y="111.057617"/>
</g>
<path style="fill:none;stroke-width:1.2;stroke-linecap:butt;stroke-linejoin:miter;stroke:rgb(0%,0%,0%);stroke-opacity:1;stroke-miterlimit:10;" d="M 227.332031 123.027344 L 222.332031 144.628906 "/>
<path style="fill:none;stroke-width:1.2;stroke-linecap:butt;stroke-linejoin:miter;stroke:rgb(0%,0%,0%);stroke-opacity:1;stroke-miterlimit:10;" d="M 248.542969 116.558594 L 227.332031 123.027344 "/>
<path style="fill:none;stroke-width:1.2;stroke-linecap:butt;stroke-linejoin:miter;stroke:rgb(0%,0%,0%);stroke-opacity:1;stroke-miterlimit:10;" d="M 222.332031 144.628906 L 238.539062 159.761719 "/>
<path style="fill:none;stroke-width:1.2;stroke-linecap:butt;stroke-linejoin:miter;stroke:rgb(0%,0%,0%);stroke-opacity:1;stroke-miterlimit:10;" d="M 238.539062 159.761719 L 249.144531 156.527344 "/>
<path style="fill:none;stroke-width:1.2;stroke-linecap:butt;stroke-linejoin:miter;stroke:rgb(100%,0%,0%);stroke-opacity:1;stroke-miterlimit:10;" d="M 249.144531 156.527344 L 259.746094 153.292969 "/>
<path style="fill:none;stroke-width:1.2;stroke-linecap:butt;stroke-linejoin:miter;stroke:rgb(100%,0%,0%);stroke-opacity:1;stroke-miterlimit:10;" d="M 259.746094 153.292969 L 262.25 142.492188 "/>
<path style="fill:none;stroke-width:1.2;stroke-linecap:butt;stroke-linejoin:miter;stroke:rgb(0%,0%,0%);stroke-opacity:1;stroke-miterlimit:10;" d="M 262.25 142.492188 L 264.75 131.691406 "/>
<path style=" stroke:none;fill-rule:nonzero;fill:rgb(100%,100%,100%);fill-opacity:1;" d="M 255.746094 147.792969 L 263.746094 147.792969 L 263.746094 158.792969 L 255.746094 158.792969 Z M 255.746094 147.792969 "/>
<g style="fill:rgb(100%,0%,0%);fill-opacity:1;">
  <use xlink:href="#glyph0-2" x="255.746094" y="156.456055"/>
</g>
<path style="fill:none;stroke-width:1.2;stroke-linecap:butt;stroke-linejoin:miter;stroke:rgb(0%,0%,0%);stroke-opacity:1;stroke-miterlimit:10;" d="M 264.75 131.691406 L 248.542969 116.558594 "/>
<path style="fill:none;stroke-width:1.2;stroke-linecap:butt;stroke-linejoin:miter;stroke:rgb(0%,0%,100%);stroke-opacity:1;stroke-miterlimit:10;" d="M 158.703125 164.035156 L 166.808594 171.601562 "/>
<path style="fill:none;stroke-width:1.2;stroke-linecap:butt;stroke-linejoin:miter;stroke:rgb(0%,0%,0%);stroke-opacity:1;stroke-miterlimit:10;" d="M 166.808594 171.601562 L 174.910156 179.167969 "/>
<path style="fill:none;stroke-width:1.2;stroke-linecap:butt;stroke-linejoin:miter;stroke:rgb(0%,0%,100%);stroke-opacity:1;stroke-miterlimit:10;" d="M 158.703125 164.035156 L 148.097656 167.269531 "/>
<path style="fill:none;stroke-width:1.2;stroke-linecap:butt;stroke-linejoin:miter;stroke:rgb(0%,0%,0%);stroke-opacity:1;stroke-miterlimit:10;" d="M 148.097656 167.269531 L 137.496094 170.503906 "/>
<path style=" stroke:none;fill-rule:nonzero;fill:rgb(100%,100%,100%);fill-opacity:1;" d="M 155.703125 158.535156 L 162.703125 158.535156 L 162.703125 169.535156 L 155.703125 169.535156 Z M 155.703125 158.535156 "/>
<g style="fill:rgb(0%,0%,100%);fill-opacity:1;">
  <use xlink:href="#glyph0-3" x="155.703125" y="167.198242"/>
</g>
<path style="fill:none;stroke-width:1.2;stroke-linecap:butt;stroke-linejoin:miter;stroke:rgb(0%,0%,0%);stroke-opacity:1;stroke-miterlimit:10;" d="M 174.910156 179.167969 L 169.90625 200.769531 "/>
<path style="fill:none;stroke-width:1.2;stroke-linecap:butt;stroke-linejoin:miter;stroke:rgb(0%,0%,0%);stroke-opacity:1;stroke-miterlimit:10;" d="M 134.953125 169.917969 L 132.453125 180.71875 "/>
<path style="fill:none;stroke-width:1.2;stroke-linecap:butt;stroke-linejoin:miter;stroke:rgb(100%,0%,0%);stroke-opacity:1;stroke-miterlimit:10;" d="M 132.453125 180.71875 L 129.949219 191.519531 "/>
<path style="fill:none;stroke-width:1.2;stroke-linecap:butt;stroke-linejoin:miter;stroke:rgb(0%,0%,0%);stroke-opacity:1;stroke-miterlimit:10;" d="M 140.035156 171.09375 L 137.535156 181.894531 "/>
<path style="fill:none;stroke-width:1.2;stroke-linecap:butt;stroke-linejoin:miter;stroke:rgb(100%,0%,0%);stroke-opacity:1;stroke-miterlimit:10;" d="M 137.535156 181.894531 L 135.035156 192.695312 "/>
<path style=" stroke:none;fill-rule:nonzero;fill:rgb(100%,100%,100%);fill-opacity:1;" d="M 128.492188 186.605469 L 136.492188 186.605469 L 136.492188 197.605469 L 128.492188 197.605469 Z M 128.492188 186.605469 "/>
<g style="fill:rgb(100%,0%,0%);fill-opacity:1;">
  <use xlink:href="#glyph0-2" x="128.492188" y="195.268555"/>
</g>
</g>
</svg>

<svg xmlns="http://www.w3.org/2000/svg" xmlns:xlink="http://www.w3.org/1999/xlink" width="300pt" height="300pt" viewBox="0 0 300 300"><defs><symbol overflow="visible"><path d="M.453 1.594v-7.938h4.5v7.938zm.5-.5h3.5v-6.938h-3.5zm0 0"/></symbol><symbol overflow="visible" id="a"><path d="M.89-6.563h3.766v.75h-2.89v1.938h2.61v.734h-2.61V0H.89zm0 0"/></symbol><symbol overflow="visible" id="b"><path d="M3.547-5.953c-.65 0-1.164.242-1.547.72-.375.48-.563 1.13-.563 1.952 0 .835.188 1.49.563 1.967.383.48.898.72 1.547.72.644 0 1.156-.24 1.53-.72.376-.476.564-1.132.564-1.968 0-.822-.187-1.474-.562-1.954-.375-.477-.887-.72-1.53-.72zm0-.734c.914 0 1.648.312 2.203.937.55.617.828 1.438.828 2.47 0 1.042-.277 1.87-.828 2.483-.555.617-1.29.922-2.203.922-.93 0-1.668-.305-2.22-.922C.774-1.41.5-2.237.5-3.28c0-1.033.273-1.853.828-2.47.55-.625 1.29-.938 2.22-.938zm0 0"/></symbol><symbol overflow="visible" id="c"><path d="M.89-6.563H2.08l2.906 5.485v-5.484h.86V0H4.656L1.75-5.484V0H.89zm0 0"/></symbol><symbol overflow="visible" id="d"><path d="M.89-6.563h.876v2.688H5v-2.688h.89V0H5v-3.125H1.766V0H.89zm0 0"/></symbol></defs><g><path fill="#fff" d="M0 0h300v300H0z"/><path d="M57.66 174.777l2.5-10.8" stroke-width="1.2" stroke="#3cc" stroke-miterlimit="10" fill="none"/><path d="M60.16 163.977l2.5-10.8" stroke-width="1.2" stroke="#000" stroke-miterlimit="10" fill="none"/><path d="M54.66 169.277h6v11h-6zm0 0" fill="#fff"/><use xlink:href="#a" x="54.66" y="177.94" fill="#3cc"/><path d="M62.66 153.176l-16.207-15.133M64.602 147.848l-12.965-12.106M83.87 146.707l-21.21 6.47M46.453 138.043l5.004-21.602M51.457 116.44l-8.105-7.565" stroke-width="1.2" stroke="#000" stroke-miterlimit="10" fill="none"/><path d="M43.352 108.875l-8.102-7.566" stroke-width="1.2" stroke="#3cc" stroke-miterlimit="10" fill="none"/><path d="M51.457 116.44l21.21-6.467M55.102 120.785l16.964-5.176" stroke-width="1.2" stroke="#000" stroke-miterlimit="10" fill="none"/><path d="M29.25 95.81h6v11h-6zm0 0" fill="#fff"/><use xlink:href="#a" x="29.25" y="104.472" fill="#3cc"/><path d="M72.668 109.973l16.207 15.132M88.875 125.105l-5.004 21.602M83.29 126.09l-4 17.28M83.87 146.707l8.103 7.566" stroke-width="1.2" stroke="#000" stroke-miterlimit="10" fill="none"/><path d="M91.973 154.273l8.105 7.567M100.078 161.84l10.606-3.235" stroke-width="1.2" stroke="#f00" stroke-miterlimit="10" fill="none"/><path d="M110.684 158.605l10.605-3.234" stroke-width="1.2" stroke="#000" stroke-miterlimit="10" fill="none"/><path d="M96.078 156.34h8v11h-8zm0 0" fill="#fff"/><use xlink:href="#b" x="96.078" y="165.003" fill="#f00"/><path d="M121.29 155.37l5-21.6M126.87 154.387l4-17.282M137.496 170.504L121.29 155.37M126.29 133.77l21.21-6.47M147.5 127.3l16.207 15.134M152.68 125l12.965 12.105M152.5 105.7l-5 21.6M163.707 142.434l10.602-3.235" stroke-width="1.2" stroke="#000" stroke-miterlimit="10" fill="none"/><path d="M174.31 139.2l10.604-3.235" stroke-width="1.2" stroke="#00f" stroke-miterlimit="10" fill="none"/><path d="M163.707 142.434l-2.504 10.8" stroke-width="1.2" stroke="#000" stroke-miterlimit="10" fill="none"/><path d="M161.203 153.234l-2.5 10.8M184.914 135.965l2.504-10.8" stroke-width="1.2" stroke="#00f" stroke-miterlimit="10" fill="none"/><path d="M187.418 125.164l2.5-10.8" stroke-width="1.2" stroke="#000" stroke-miterlimit="10" fill="none"/><path d="M180.332 132.63l2-8.646" stroke-width="1.2" stroke="#00f" stroke-miterlimit="10" fill="none"/><path d="M182.332 123.984l2.004-8.64" stroke-width="1.2" stroke="#000" stroke-miterlimit="10" fill="none"/><path d="M181.914 130.465h7v11h-7zm0 0" fill="#fff"/><use xlink:href="#c" x="181.914" y="139.128" fill="#00f"/><path d="M189.918 114.363l-8.106-7.566" stroke-width="1.2" stroke="#000" stroke-miterlimit="10" fill="none"/><path d="M181.813 106.797l-8.102-7.567" stroke-width="1.2" stroke="#00f" stroke-miterlimit="10" fill="none"/><path d="M189.918 114.363l10.605-3.234" stroke-width="1.2" stroke="#000" stroke-miterlimit="10" fill="none"/><path d="M200.523 111.13l10.602-3.235M173.71 99.23l-10.605 3.235" stroke-width="1.2" stroke="#00f" stroke-miterlimit="10" fill="none"/><path d="M163.105 102.465L152.5 105.7" stroke-width="1.2" stroke="#000" stroke-miterlimit="10" fill="none"/><path d="M173.113 104.867l-8.484 2.586" stroke-width="1.2" stroke="#00f" stroke-miterlimit="10" fill="none"/><path d="M164.63 107.453l-8.485 2.59" stroke-width="1.2" stroke="#000" stroke-miterlimit="10" fill="none"/><path d="M170.71 93.73h7v11h-7zm0 0" fill="#fff"/><use xlink:href="#c" x="170.711" y="102.394" fill="#00f"/><path d="M211.125 107.895l8.105 7.566" stroke-width="1.2" stroke="#00f" stroke-miterlimit="10" fill="none"/><path d="M219.23 115.46l8.102 7.567" stroke-width="1.2" stroke="#000" stroke-miterlimit="10" fill="none"/><path d="M204.125 102.395h14v11h-14zm0 0" fill="#fff"/><g fill="#00f"><use xlink:href="#c" x="204.125" y="111.058"/><use xlink:href="#d" x="211.103" y="111.058"/></g><path d="M227.332 123.027l-5 21.602M248.543 116.56l-21.21 6.467M222.332 144.63l16.207 15.132M238.54 159.762l10.605-3.235" stroke-width="1.2" stroke="#000" stroke-miterlimit="10" fill="none"/><path d="M249.145 156.527l10.6-3.234M259.746 153.293l2.504-10.8" stroke-width="1.2" stroke="#f00" stroke-miterlimit="10" fill="none"/><path d="M262.25 142.492l2.5-10.8" stroke-width="1.2" stroke="#000" stroke-miterlimit="10" fill="none"/><path d="M255.746 147.793h8v11h-8zm0 0" fill="#fff"/><use xlink:href="#b" x="255.746" y="156.456" fill="#f00"/><path d="M264.75 131.69l-16.207-15.13" stroke-width="1.2" stroke="#000" stroke-miterlimit="10" fill="none"/><path d="M158.703 164.035l8.106 7.567" stroke-width="1.2" stroke="#00f" stroke-miterlimit="10" fill="none"/><path d="M166.81 171.602l8.1 7.566" stroke-width="1.2" stroke="#000" stroke-miterlimit="10" fill="none"/><path d="M158.703 164.035l-10.605 3.235" stroke-width="1.2" stroke="#00f" stroke-miterlimit="10" fill="none"/><path d="M148.098 167.27l-10.602 3.234" stroke-width="1.2" stroke="#000" stroke-miterlimit="10" fill="none"/><path d="M155.703 158.535h7v11h-7zm0 0" fill="#fff"/><use xlink:href="#c" x="155.703" y="167.198" fill="#00f"/><path d="M174.91 179.168l-5.004 21.602M134.953 169.918l-2.5 10.8" stroke-width="1.2" stroke="#000" stroke-miterlimit="10" fill="none"/><path d="M132.453 180.72l-2.504 10.8" stroke-width="1.2" stroke="#f00" stroke-miterlimit="10" fill="none"/><path d="M140.035 171.094l-2.5 10.8" stroke-width="1.2" stroke="#000" stroke-miterlimit="10" fill="none"/><path d="M137.535 181.895l-2.5 10.8" stroke-width="1.2" stroke="#f00" stroke-miterlimit="10" fill="none"/><path d="M128.492 186.605h8v11h-8zm0 0" fill="#fff"/><use xlink:href="#b" x="128.492" y="195.269" fill="#f00"/></g></svg>
